X:2
T:Drumin's Strathspey
T:Drumin
R:strathspey
C:Wm. Marshall
D:Laments and Merry Melodies, Theresa Morrison
Z:Paul Stewart Cranford (P.S.C.), <http://www.cranfordpub.com>
Q:288
L:1/8
M:C
K:D
E|(D/E/F/G/) A>F D/D/D TB2|A<dA>F G>EE>F|D/E/F A>F D/D/D B2|A<dA>G F>DD>F|
D>FA>F D/D/D TB2|A<dA>F G<EE>F|D/E/F/G/ A>F D/D/D B2|A<dA>G F>DD||
||g|f>ed>e d/d/d f2|d>ef>e e<EE>g|f>ed>e d/d/d f<d|(B/c/d) A>G F>DD>g|
f>ed>e d/d/d f<d|(B/c/d) A>F B>EE>e|fec>d|B<dA>G F>DD|]
